client/src/assets/images/icon-isolation-blue.svg

<svg fill="none" height="92" viewBox="0 0 92 92" width="92" xmlns="http://www.w3.org/2000/svg"><g stroke="#06b9ff"><path d="m47.5771 22.2283.0044.0031 21.8638 15.5911h-.0001l.0082.0057c.3257.2258.5704.5503.698.9256s.1315.7816.0109 1.1592c-.1205.3777-.359.7066-.6804.9386-.3215.232-.7088.3547-1.1052.3501h-.0087-4.518-.75v.75 25.1715c0 .5714-.227 1.1194-.631 1.5234-.404.4041-.952.6311-1.5234.6311h-23.1344-.8112-6.3003c-.5609-.0136-1.0945-.2455-1.4872-.6465-.3944-.4028-.6152-.9441-.6151-1.5078v-.0002-25.1715-.75h-.75-4.2154v-.0001l-.0087.0001c-.3964.0046-.7837-.1181-1.1052-.3501-.3214-.232-.5599-.5609-.6804-.9386-.1206-.3776-.1167-.7839.0109-1.1592s.3723-.6998.698-.9256h.0001l.0054-.0038 22.0654-15.5911.0001.0001.007-.0051c.4294-.3109.9461-.4783 1.4762-.4783.5302 0 1.0469.1674 1.4763.4783z" stroke-width="1.5"/><path d="m48.3388 32.9954c0 1.4038-1.0721 2.4954-2.3387 2.4954-1.2667 0-2.3387-1.0916-2.3387-2.4954s1.072-2.4954 2.3387-2.4954c1.2666 0 2.3387 1.0916 2.3387 2.4954z"/><path d="m42.0237 41.0546-2.1962 7.7425c-.0974.3102-.2552.4666-.3949.5403-.1451.0765-.3122.0865-.4678.0338-.2806-.0952-.5966-.4367-.409-1.1088l2.4395-8.4153h.0001l.0021-.0078c.1189-.4366.3568-1.0225.7717-1.4905.4026-.454.9741-.8029 1.8148-.8029h4.8084c.8283 0 1.3976.3497 1.8069.8089.4195.4707.6693 1.058.8101 1.4988l2.439 8.3983c.1801.6756-.1406 1.0327-.4205 1.1302-.1516.0529-.3119.0428-.4519-.0341-.1369-.0752-.2988-.2397-.3992-.5755l-2.1967-7.7183-.1034-.3631h-.3775-.6396-.6575l.1757.6336 3.1061 11.2004c.265.9557-.4537 1.9009-1.4454 1.9009h-.8792-.5v.5 10.7078c0 .3282-.1136.5333-.2493.6589-.1434.1328-.3453.2076-.5608.2072s-.4181-.0759-.5622-.2095c-.1365-.1265-.2496-.3314-.2496-.6566v-10.778-.5h-.5-1.0688-.5001l.0001.5001.0017 10.7629v.0001c0 .3326-.1148.5416-.2523.6698-.1449.1351-.3481.2109-.564.2109s-.4191-.0758-.5641-.2109c-.1375-.1283-.2523-.3372-.2523-.6699l-.0007-10.6929v-.4999h-.5-.8958c-.9904 0-1.709-.943-1.4462-1.898l3.083-11.2043.1741-.6326h-.6562-.5911-.3779z"/></g></svg>

<svg width="92" height="92" viewBox="0 0 92 92" fill="none" xmlns="http://www.w3.org/2000/svg">
<path d="M47.5771 22.2283L47.5771 22.2283L47.5815 22.2314L69.4453 37.8225L69.4452 37.8225L69.4534 37.8282C69.7791 38.054 70.0238 38.3785 70.1514 38.7538C70.279 39.1291 70.2829 39.5354 70.1623 39.913C70.0418 40.2907 69.8033 40.6196 69.4819 40.8516C69.1604 41.0836 68.7731 41.2063 68.3767 41.2017V41.2017H68.368H63.85H63.1V41.9517V67.1232C63.1 67.6946 62.873 68.2426 62.469 68.6466C62.065 69.0507 61.517 69.2777 60.9456 69.2777H37.8112H37H30.6997C30.1388 69.2641 29.6052 69.0322 29.2125 68.6312C28.8181 68.2284 28.5973 67.6871 28.5974 67.1234V67.1232V41.9517V41.2017H27.8474H23.632V41.2016L23.6233 41.2017C23.2269 41.2063 22.8396 41.0836 22.5181 40.8516C22.1967 40.6196 21.9582 40.2907 21.8377 39.913C21.7171 39.5354 21.721 39.1291 21.8486 38.7538C21.9762 38.3785 22.2209 38.054 22.5466 37.8282L22.5467 37.8282L22.5521 37.8244L44.6175 22.2333L44.6176 22.2334L44.6246 22.2283C45.054 21.9174 45.5707 21.75 46.1008 21.75C46.631 21.75 47.1477 21.9174 47.5771 22.2283Z" stroke="#06B9FF" stroke-width="1.5"/>
<path d="M48.3388 32.9954C48.3388 34.3992 47.2667 35.4908 46.0001 35.4908C44.7334 35.4908 43.6614 34.3992 43.6614 32.9954C43.6614 31.5916 44.7334 30.5 46.0001 30.5C47.2667 30.5 48.3388 31.5916 48.3388 32.9954Z" stroke="#06B9FF"/>
<path d="M42.0237 41.0546L39.8275 48.7971C39.7301 49.1073 39.5723 49.2637 39.4326 49.3374C39.2875 49.4139 39.1204 49.4239 38.9648 49.3712C38.6842 49.276 38.3682 48.9345 38.5558 48.2624L40.9953 39.8471L40.9954 39.8471L40.9975 39.8393C41.1164 39.4027 41.3543 38.8168 41.7692 38.3488C42.1718 37.8948 42.7433 37.5459 43.584 37.5459H48.3924C49.2207 37.5459 49.79 37.8956 50.1993 38.3548C50.6188 38.8255 50.8686 39.4128 51.0094 39.8536L53.4484 48.2519C53.6285 48.9275 53.3078 49.2846 53.0279 49.3821C52.8763 49.435 52.716 49.4249 52.576 49.348C52.4391 49.2728 52.2772 49.1083 52.1768 48.7725L49.9801 41.0542L49.8767 40.6911H49.4992H48.8596H48.2021L48.3778 41.3247L51.4839 52.5251C51.7489 53.4808 51.0302 54.426 50.0385 54.426H49.1593H48.6593V54.926V65.6338C48.6593 65.962 48.5457 66.1671 48.41 66.2927C48.2666 66.4255 48.0647 66.5003 47.8492 66.4999C47.6337 66.4995 47.4311 66.424 47.287 66.2904C47.1505 66.1639 47.0374 65.959 47.0374 65.6338V54.8558V54.3558H46.5374H45.4686H44.9685L44.9686 54.8559L44.9703 65.6188C44.9703 65.6188 44.9703 65.6189 44.9703 65.6189C44.9703 65.9515 44.8555 66.1605 44.718 66.2887C44.5731 66.4238 44.3699 66.4996 44.154 66.4996C43.9381 66.4996 43.7349 66.4238 43.5899 66.2887C43.4524 66.1604 43.3376 65.9515 43.3376 65.6188V65.6188L43.3369 54.9259L43.3369 54.426H42.8369H41.9411C40.9507 54.426 40.2321 53.483 40.4949 52.528L43.5779 41.3237L43.752 40.6911H43.0958H42.5047H42.1268L42.0237 41.0546Z" stroke="#06B9FF"/>
</svg>
